!!!COM: Music21
!!!OTL: slide_Kellehers
!!!OMV: slide_Kellehers
**kern
*clefG2
*k[f#]
*G:
*M12/8
=1
4.d
4.d
8eL
8g
8gJ
4.g
=
8aL
8b
8ccJ
4dd
8cc
8bL
8a
8gJ
8aL
8g
8eJ
=
4.d
4.d
8eL
8g
8gJ
4.g
=
8aL
8b
8ccJ
4dd
8cc
8bL
8g
8gJ
8gL
8f#
8eJ
!!linebreak:original
=||
*M12/8
4.d
4.d
8eL
8g
8gJ
4.g
=
8aL
8b
8ccJ
4dd
8cc
8bL
8a
8gJ
8aL
8g
8eJ
=
4.d
4.d
8eL
8g
8gJ
4.g
=
8aL
8b
8ccJ
4dd
8cc
8bL
8g
8gJ
8gL
8b
8ccJ
!!linebreak:original
=||
4.dd
4dd
8gg
8eeL
8dd
8bJ
4dd
8b
=
4g
8b
8aL
8g
8eJ
8aL
8b
8aJ
8aL
8b
8ccJ
=
4.dd
4dd
8gg
8eeL
8dd
8bJ
4dd
8b
=
4g
8b
8aL
8g
8eJ
8gL
8a
8gJ
8gL
8b
8ccJ
!!linebreak:original
=||
*M12/8
4.d
4.d
8eL
8g
8gJ
4.g
=
8aL
8b
8ccJ
4dd
8cc
8bL
8a
8gJ
8aL
8g
8eJ
=
4.d
4.d
8eL
8g
8gJ
4.g
=
8aL
8b
8ccJ
4dd
8cc
8bL
8g
8gJ
8gL
8f#
8eJ
!!linebreak:original
=||
*M12/8
4.d
4.d
8eL
8g
8gJ
4.g
=
8aL
8b
8ccJ
4dd
8cc
8bL
8a
8gJ
8aL
8g
8eJ
=
4.d
4.d
8eL
8g
8gJ
4.g
=
8aL
8b
8ccJ
4dd
8cc
8bL
8g
8gJ
8gL
8b
8ccJ
!!linebreak:original
=||
4.dd
4dd
8gg
8eeL
8dd
8bJ
4dd
8b
=
4g
8b
8aL
8g
8eJ
8aL
8b
8aJ
8aL
8b
8ccJ
=
4.dd
4dd
8gg
8eeL
8dd
8bJ
4dd
8b
=
4g
8b
8aL
8g
8eJ
8gL
8a
8gJ
8gL
8f#
8eJ
=||
*-
